icons/react-dark.svg

<svg xmlns="http://www.w3.org/2000/svg" width="256" height="256" fill="none" viewBox="0 0 256 256"><rect width="256" height="256" fill="#282828" rx="60"/><path fill="#00D8FF" d="M128.001 146.951C138.305 146.951 146.657 138.598 146.657 128.295C146.657 117.992 138.305 109.639 128.001 109.639C117.698 109.639 109.345 117.992 109.345 128.295C109.345 138.598 117.698 146.951 128.001 146.951Z"/><path fill-rule="evenodd" stroke="#00D8FF" stroke-width="8.911" d="M128.002 90.3633C153.05 90.3633 176.319 93.9575 193.864 99.9976C215.003 107.275 228 118.306 228 128.295C228 138.704 214.226 150.423 191.525 157.944C174.363 163.63 151.779 166.598 128.002 166.598C103.624 166.598 80.5389 163.812 63.1834 157.881C41.2255 150.376 28 138.506 28 128.295C28 118.387 40.4096 107.441 61.2515 100.175C78.8617 94.0353 102.705 90.3633 127.998 90.3633H128.002Z" clip-rule="evenodd"/><path fill-rule="evenodd" stroke="#00D8FF" stroke-width="8.911" d="M94.9811 109.438C107.495 87.7402 122.232 69.3783 136.23 57.1971C153.094 42.5206 169.144 36.7728 177.796 41.7623C186.813 46.9623 190.084 64.7496 185.259 88.1712C181.614 105.879 172.9 126.925 161.021 147.523C148.842 168.641 134.897 187.247 121.09 199.315C103.619 214.587 86.7284 220.114 77.8833 215.013C69.3003 210.067 66.0181 193.846 70.1356 172.161C73.6145 153.838 82.3451 131.349 94.977 109.438L94.9811 109.438Z" clip-rule="evenodd"/><path fill-rule="evenodd" stroke="#00D8FF" stroke-width="8.911" d="M95.0123 147.578C82.4633 125.904 73.9194 103.962 70.3531 85.7517C66.0602 63.8109 69.0954 47.0355 77.7401 42.0315C86.7485 36.8163 103.792 42.866 121.674 58.7437C135.194 70.7479 149.077 88.8052 160.99 109.383C173.204 130.481 182.358 151.856 185.919 169.844C190.425 192.608 186.778 210.001 177.941 215.116C169.367 220.08 153.676 214.825 136.945 200.427C122.809 188.263 107.685 169.468 95.0123 147.578Z" clip-rule="evenodd"/></svg>

<svg xmlns="http://www.w3.org/2000/svg" width="256" height="256" fill="none"><rect width="256" height="256" fill="#282828" rx="60"/><path fill="#00D8FF" d="M128.001 146.951c10.304 0 18.656-8.353 18.656-18.656s-8.352-18.656-18.656-18.656-18.656 8.353-18.656 18.656 8.353 18.656 18.656 18.656"/><path stroke="#00D8FF" stroke-width="8.911" d="M128.002 90.363c25.048 0 48.317 3.594 65.862 9.635C215.003 107.275 228 118.306 228 128.295c0 10.409-13.774 22.128-36.475 29.649-17.162 5.686-39.746 8.654-63.523 8.654-24.378 0-47.463-2.786-64.819-8.717C41.225 150.376 28 138.506 28 128.295c0-9.908 12.41-20.854 33.252-28.12 17.61-6.14 41.453-9.812 66.746-9.812z" clip-rule="evenodd"/><path stroke="#00D8FF" stroke-width="8.911" d="M94.981 109.438c12.514-21.698 27.251-40.06 41.249-52.24 16.864-14.677 32.914-20.425 41.566-15.436 9.017 5.2 12.288 22.988 7.463 46.41-3.645 17.707-12.359 38.753-24.238 59.351-12.179 21.118-26.124 39.724-39.931 51.792-17.471 15.272-34.362 20.799-43.207 15.698-8.583-4.946-11.865-21.167-7.747-42.852 3.479-18.323 12.21-40.812 24.841-62.723z" clip-rule="evenodd"/><path stroke="#00D8FF" stroke-width="8.911" d="M95.012 147.578c-12.549-21.674-21.093-43.616-24.659-61.826-4.293-21.941-1.258-38.716 7.387-43.72 9.009-5.216 26.052.834 43.934 16.712 13.52 12.004 27.403 30.061 39.316 50.639 12.214 21.098 21.368 42.473 24.929 60.461 4.506 22.764.859 40.157-7.978 45.272-8.574 4.964-24.265-.291-40.996-14.689-14.136-12.164-29.26-30.959-41.933-52.849Z" clip-rule="evenodd"/></svg>
